!!!OTL: ICH GING IM NAECHTLICH STILLEN HAINE
!!!ARE: Europa, Mitteleuropa, Deutschland, Rheinland; Untertaunus; Wetzlar
!!!SCT: B0162
!!!YEM: Copyright 1995, estate of Helmut Schaffrath.
**kern
*ICvox
*Ivox
*M4/4
*k[f#]
*G:
{8d
8g
=1
4.g
8g
8g
8g
8b
8g
=2
8b
8a
4a
4r}
{8f#
8g
=3
4.a
8a
8a
8a
8g
8a
=4
4b
8dd
8cc
4b}
{4dd
=5
4.a
8dd
8a
8a
8g
8e
=6
2.d}
{4d
=7
4.cc
8b
8a
8g
8f#
8g
=8
8b
8g
4g
4r}
{8g
8b
=9
4dd
8b
8dd
8ee
8dd
8cc
8b
=10
8cc
8a
2a}
{4ee
=11
8dd
8f#
8g
8a
4b
4a
=12
2g
4r}
==
!!!AGN: Ballade, Romanze
!!!ONB: ESAC (Essen Associative Code) Database: BOEHME
!!!AMT: simple quadruple
!!!AIN: vox
!!!EED: Helmut Schaffrath
!!!EEV: 1.0
*-
